X: 1464
T: Nevâ Peşrev
C: Şerîf Çelebi
O: Turkey
F: http://compmusic.upf.edu/node/140
N: neva--pesrev--nimberefsan----serif_celebi
N: makam= neva
N: form= pesrev
N: usul= nimberefsan = 16/8
M: 16/8
L: 1/16
K: C _2/4B ^3/4f  
Q: 1/4=132
%%MIDI tuningsystem comma53
d4 c_1/4B A4 G2 A4  | _1/4B2 G2 B2 c2 d8  | \
w:  1. HANE  |   | 
d2 c2 _1/4B2 c2 d2 e2 =f4  | e2 g2 =f2 e2 d2 e2 d2 c_1/4B  | 
w:   |   | 
A4 G2 _1/4B4 c2 d4  | c2 d2 c2 B2 A8  | \
w:   |   | 
e4 _1/4B2 c4 _2/4B2 A4  | A2 G2 d2 _1/4B2 c6 B2  | 
w:  MÜLÂZİME  |   | 
d4 c_1/4B A4 cd e2 dc  | _1/4B2 d2 c2 _2/4B2 A6 z2  | \
w:   |   | 
c4 d2 _1/4B4 c2 A4  | A2 G2 d2 _1/4B2 c6 B2  | 
w:   |   | 
d4 c_1/4B A4 cd e2 dc  | _1/4B2 d2 c2 _2/4B2 A6 z2  | \
w:   |   | 
=f2 e2 d2 c2 d2 e2 f4  | 
w:   | 
=f2 e2 f2 e2 d8  | e2 d2 c2 d2 c2 =f2 e2 d2  | \
w:   |   | 
c2 _1/4B2 c2 B2 A6 z2  | =f2 e2 d2 c2 d2 e2 f4  | 
w:   |   | 
e2 g2 =f2 e2 d2 e2 d2 c_1/4B  | A4 G2 _1/4B4 c2 d4  | \
w:   |   | 
c2 d2 c2 B2 A6 z2  | A4 G2 A4 G2 a4  | 
w:   |  2. HANE  | 
a2 g2 =f2 g2 a4 z4  | _b2 a2 g2 a2 g2 =f2 g2 f2  | \
w:   |   | 
e2 g2 =f2 e2 d8  | e2 =f2 g2 f2 e2 d2 e2 f2  | 
w:   |   | 
g2 e2 =f2 e2 d8  | d2 e2 =f2 e2 d2 c2 f2 e2  | \
w:   |   | 
d2 _1/4B2 c2 _2/4B2 A6 z2  | e2 =f2 g2 e2 f2 d2 e2 f2  | 
w:   |   | 
g2 e2 =f2 e2 d2 e2 d2 cB  | A4 G2 B4 c2 d4  | \
w:   |   | 
c2 d2 c2 B2 A6 z2  | e4 _1/4B2 c4 _2/4B2 A4  | 
w:   |  MÜLÂZİME  | 
A2 G2 d2 _1/4B2 c6 B2  | d4 c_1/4B A4 cd e2 dc  | \
w:   |   | 
_1/4B2 d2 c2 _2/4B2 A6 z2  | 
w:   | 
c4 d2 _1/4B4 c2 A4  | A2 G2 d2 _1/4B2 c6 B2  | \
w:   |   | 
d4 c_1/4B A4 cd e2 dc  | _1/4B2 d2 c2 _2/4B2 A6 z2  | 
w:   |   | 
=f2 e2 d2 c2 d2 e2 f4  | =f2 e2 f2 e2 d8  | \
w:   |   | 
e2 d2 c2 d2 c2 =f2 e2 d2  | c2 _1/4B2 c2 B2 A6 z2  | 
w:   |   | 
=f2 e2 d2 c2 d2 e2 f4  | e2 g2 =f2 e2 d2 e2 d2 c_1/4B  | \
w:   |   | 
A4 G2 _1/4B4 c2 d4  | 
w:   | 
c2 d2 c2 B2 A6 z2  | c2 d2 c2 d2 c2 _B2 c2 B2  | \
w:   |  3. HANE  | 
A2 G2 _B2 c2 d6 z2  | c2 d2 c2 d2 c2 _B2 c2 B2  | 
w:   |   | 
A2 c2 _B2 A2 G6 z2  | A2 _B2 A2 B2 A2 G2 B2 A2  | \
w:   |   | 
G2 _B2 A2 G2 =F2 E2 D4  | 
w:   | 
_1/4B2 c2 d2 e2 d2 c2 =f2 e2  | d2 g2 =f2 e2 d2 e2 d2 c_1/4B  | \
w:   |   | 
A4 G2 _1/4B4 c2 d4  | 
w:   | 
c2 d2 c2 B2 A8  | e4 _1/4B2 c4 _2/4B2 A4  | \
w:   |  MÜLÂZİME  | 
A2 G2 d2 _1/4B2 c6 B2  | d4 c_1/4B A4 cd e2 dc  | 
w:   |   | 
_1/4B2 d2 c2 _2/4B2 A6 z2  | c4 d2 _1/4B4 c2 A4  | \
w:   |   | 
A2 G2 d2 _1/4B2 c6 B2  | d4 c_1/4B A4 cd e2 dc  | 
w:   |   | 
_1/4B2 d2 c2 _2/4B2 A6 z2  | =f2 e2 d2 c2 d2 e2 f4  | \
w:   |   | 
=f2 e2 f2 e2 d8  | e2 d2 c2 d2 c2 =f2 e2 d2  | 
w:   |   | 
c2 _1/4B2 c2 B2 A6 z2  | =f2 e2 d2 c2 d2 e2 f4  | \
w:   |   | 
e2 g2 =f2 e2 d2 e2 d2 c_1/4B  | 
w:   | 
A4 G2 _1/4B4 c2 d4  | c2 d2 c2 B2 A6 z2  | |


